X: 3
T: Martin Wynne's #1
M: 4/4
L: 1/8
K: Dmaj
B|"D"AF !roll!F2 GE !roll!E2|"Bm"DF !roll!F2  "Em"EFDB|"D"ABDE "Bm"!roll!F3 B|"Em"ABde "A"fe!roll!e2|
"D"AF !roll!F2 GE !roll!E2|"D"DF !roll!F2  "G"EFDB|"D"ABDE "Bm"!roll!F3 B|"A"ABde "D"fd d2:|]
e|"D"f2 af gfeg|"Bm"fedf "Em"edBc|"D"dBAF "Bm"DEFB|"Em"ABde fe "A"!roll!e2|
"D"f2 af gfeg|"D"fedf "G"edBc|"D"dBAF "Bm"DEFB|"A"ABde "D"fd d2:|]



